X:1
T:Ye Parliament of England
M:6/8
L:1/4
K:G
 B/2| E E/2 E E/2| e3/2 B B/2| d c/2 B G/2| A3/2 z c/2| B B/2 G B/2|\
 A A/2 F A/2| B E/2 ^D E/2| F3/2 z G/2| B A/2 G E/2| ^D/2 B,3/2 z/2 B,/2|\
 E E/2 E G/2| A3/2 z A/2| G A/2 B c/2| d c/2 B B/2| G G/2 F F/2| E3/2- E||\
